X:91
T:Polskan som Puken spelte nar Grue kyrka brann
C:
R:Polska
Z:Anton Teljebäck 2007-12-01
N:Spelas med kort 3:a
O:Norge
S:Känd genom Zara Helje
N:Det finns fler låtar från [[!Norge]]
M:3/4
L:1/8
K:A
c2 A2 E2    | c2  A2  E2  | B<A B>c d2 | c<B c2 A2 |
c2 A2 E2    | c2  A2  B2  | A2 B>d B<G | A2 A4    :|
c>^d e>f ed | e>^d c>B A2 | B2 B>c d2  | c<B c2 A2 |
c>^d e>f ed | e>^d c>B A2 | B2 B>c d2  | BG A4    :|
(:musicend:)

(:music:)
